kora/panel/16/pomodoneapp-break.svg

<svg xmlns="http://www.w3.org/2000/svg" width="16" height="16" version="1.1">
 <defs>
  <style id="current-color-scheme" type="text/css">
   .ColorScheme-Text { color:#dfdfdf; } .ColorScheme-Highlight { color:#4285f4; }
  </style>
 </defs>
 <path style="fill:currentColor" class="ColorScheme-Text" d="M 8,1 A 7,7 0 0 0 1,8 7,7 0 0 0 8,15 7,7 0 0 0 15,8 7,7 0 0 0 8,1 Z M 5.5,4 H 10.5 C 11.331,4 12,4.669 12,5.5 V 10.5 C 12,11.331 11.331,12 10.5,12 H 5.5 C 4.669,12 4,11.331 4,10.5 V 5.5 C 4,4.669 4.669,4 5.5,4 Z M 6.5859,5.3789 C 6.4581,5.3789 6.3304,5.4275 6.2324,5.5254 L 5.5254,6.2324 C 5.3295,6.4283 5.3295,6.7436 5.5254,6.9395 L 6.5859,8 5.5254,9.0605 C 5.3295,9.2555 5.3295,9.5716 5.5254,9.7676 L 6.2324,10.475 C 6.4283,10.67 6.7436,10.67 6.9395,10.475 L 8,9.4141 9.0605,10.475 C 9.2555,10.67 9.5716,10.67 9.7676,10.475 L 10.475,9.7676 C 10.67,9.5716 10.67,9.2555 10.475,9.0605 L 9.4141,8 10.475,6.9395 C 10.67,6.7436 10.67,6.4283 10.475,6.2324 L 9.7676,5.5254 C 9.5716,5.3295 9.2555,5.3295 9.0605,5.5254 L 8,6.5859 6.9395,5.5254 C 6.8415,5.4275 6.7137,5.3789 6.5859,5.3789 Z"/>
</svg>

<svg xmlns="http://www.w3.org/2000/svg" width="16" height="16" viewBox="0 0 16 16">
 <defs>
  <style id="current-color-scheme" type="text/css">
   .ColorScheme-Text { color:#dfdfdf; } .ColorScheme-Highlight { color:#4285f4; } .ColorScheme-NeutralText { color:#ff9800; } .ColorScheme-PositiveText { color:#4caf50; } .ColorScheme-NegativeText { color:#f44336; }
  </style>
 </defs> 
 <path style="opacity:0.3;fill:currentColor" class="ColorScheme-Text" d="m8 1c-3.84 0-7 3.16-7 7s3.16 7 7 7 7-3.16 7-7-3.16-7-7-7zm-2.5 3h5c.831 0 1.5.669 1.5 1.5v5c0 .831-.669 1.5-1.5 1.5h-5c-.831 0-1.5-.669-1.5-1.5v-5c0-.831.669-1.5 1.5-1.5z"/>
 <path style="fill:currentColor" class="ColorScheme-Text" d="m6.586 5.379c-.128 0-.256.048-.354.146l-.707.707c-.196.196-.196.512 0 .707l1.061 1.061-1.061 1.06c-.196.195-.196.512 0 .708l.707.707c.196.195.512.195.707 0l1.061-1.061 1.06 1.061c.195.195.512.195.708 0l.707-.707c.195-.196.195-.513 0-.708l-1.061-1.06 1.061-1.061c.195-.195.195-.511 0-.707l-.707-.707c-.196-.196-.513-.196-.708 0l-1.06 1.061-1.061-1.061c-.098-.098-.225-.146-.353-.146z"/>
</svg>
